X: 24
T: No_31_Song_Received_from_a_Buffalo.krn
N: Derived from No_31_Song_Received_from_a_Buffalo.krn
%%abc-version 2.0
%%abcx-abcm2ps-target-version 5.9.1 (29 Sep 2008)
%%abc-creator hum2abc beta
%%abcx-conversion-date 2019/03/15 08:27:55
%%humdrum-veritas 900870414
%%humdrum-veritas-data 308488922
%%linebreak <none>
%%barnumbers 0
L: 1/8
M: 2/4
K: Eb clef=bass
[K:clef=bass][M:2/4]C3//G,//G, G, z | 
G,3//G,//G, G, z ]|:  
C3//G,//G, G, z | 
G,3//G,//G, G, z | 
G,3/G,/G,2 | 
F,3/F,/ F,/E,3/ | 
F,3/F,/ F,/E,/E, | 
C,3/C,/ C, z | 
F,3/F,/F,2 | 
G,3/G,/ G, z/ (G,/ | 
F,3/)F,/ F,/E,3/ | 
F,3/F,/ F,/E,/E, | 
C,3/C,/ C, z/ (E,/ | 
C,3/)C,/C,2 | 
[M:3/4]C,3/C,/C,2z3/ G,/ | 
[M:2/4]G,3/G,/ G, z :|]  
C,3/C,/C,2 |]  



